!!!COM: Mozart, Wolfgang Amadeus
!!!OPR: Quartet in A Major
!!!OTL:
!!!OMV: 2
!!!SCT: K 464
!!!SCA: Chronologisch-thematisches Verzeichnis sämtlicher Tonwerke Wolfgang Amade Mozarts (L. von Köchel; 1862, 2/1905, 3/1937, 1947)
!!!YOR: Breitkopf & Härtel Edition
!!!EED: Frances Bennion
!!!ENC: Frances Bennion
!!!CDT: 1756/1/27/-1791/12/5/
!!!OCY: Österreich
!!!YEC: Copyright (c) 1994, 2000 Center for Computer Assisted Research in the Humanities
!!!YEM: Rights to all derivative editions reserved.
!!!YEM: Refer to licensing agreement for further details.
!!!YEN: United States of America
**kern	**kern	**kern	**kern
*k[f#c#g#]	*k[f#c#g#]	*k[f#c#g#]	*k[f#c#g#]
*A:	*A:	*A:	*A:
*clefG	*clefG	*clefF	*clefC
*M3/4	*M3/4	*M3/4	*M3/4
=1	=1	=1	=1
2A	2A	2A	2AA
4c#	4c#	4c#	4C#
=2	=2	=2	=2
4e	4e	4e	4E
4d	4d	4d	4D
4r	4r	4r	4r
=3	=3	=3	=3
2B	2B	2B	2BB
4d	4d	4d	4D
=4	=4	=4	=4
4f#	4f#	4f#	4F#
4e	4e	4e	4E
4r	4r	4r	4r
=5	=5	=5	=5
4ee	2.e	2.c#	2.r
4ee	.	.	.
4ee	.	.	.
=6	=6	=6	=6
4ee	2.f#	2.d	2.r
8.dd	.	.	.
16cc#	.	.	.
4b	.	.	.
=7	=7	=7	=7
4dd	2.g#	2.e	2.r
4dd	.	.	.
4dd	.	.	.
=8	=8	=8	=8
4dd	4a	4A	2.r
8.cc#	2r	2r	.
16b	.	.	.
4a	.	.	.
=9	=9	=9	=9
2a	4a	2.r	2.r
.	4a	.	.
4cc#	4a	.	.
=10	=10	=10	=10
4ff#	4a	2.r	2.r
4ee	8.g#	.	.
.	16f#	.	.
4r	4e	.	.
=11	=11	=11	=11
2ee	2e	4g	4e
.	.	4g	4e
4gg	4g	4g	4e
=12	=12	=12	=12
4ccc	4cc	4g	4e
4bb	4b	8.f#	8.d#
.	.	16e	16c#
4r	4r	4d#	4B
=13	=13	=13	=13
2ee	2.r	2.r	2.r
4gg#	.	.	.
=14	=14	=14	=14
4ccc#	2.r	2D#	2.r
4bb	.	.	.
4r	.	4F#	.
=15	=15	=15	=15
2.r	2e	4A	2.r
.	.	4G#	.
.	4g#	4r	.
=16	=16	=16	=16
2.r	4cc#	2.r	2DD#
.	4b	.	.
.	4r	.	4FF#
=17	=17	=17	=17
4bb	4b	2.r	4AA
4bb	4b	.	4GG#
4bb	4b	.	4r
=18	=18	=18	=18
4bb	4b	4d#	4A
8.aa	8.a	4d#	4A
16gg#	16g#	.	.
4ff#	4f#	4d#	4A
=19	=19	=19	=19
4bb	4b	4d#	4A
4bb	4b	8.e	8.G#
.	.	16f#	16F#
4bb	4b	4g#	4E
=20	=20	=20	=20
4bb	4b	4d#	4A
8.aa	8.a	4d#	4A
16gg#	16g#	.	.
4ff#	4f#	4d#	4A
=21	=21	=21	=21
4bb	4dd	4f#	4A
4bb	4dd	8.e#	8.G#
.	.	16f#	16F#
4bb	4dd	4g#	4E#
=22	=22	=22	=22
8aa#	4cc#	4c#	4F#
8ff#	.	.	.
4.aa	4cc	4.f#	4.D#
.	4b	.	.
8gg#	.	8g#	8E
=23	=23	=23	=23
8gg#	4cc#	4a	4AA
8ff#	.	.	.
4ee	4b	4g#	4BB
4dd#	4a	4f#	4BB#
=24	=24	=24	=24
8ee	4g#	4e	4C#
8gg#	.	.	.
8ff#	2r	2r	2r
8ee	.	.	.
8dd#	.	.	.
8cc#	.	.	.
=25	=25	=25	=25
4b	2.B	2.G#	2.r
4b	.	.	.
4b	.	.	.
=26	=26	=26	=26
4b	2.c#	2.A	2.r
8.a	.	.	.
16g#	.	.	.
4f#	.	.	.
=27	=27	=27	=27
4.a	4d#	4.F#	4BB
.	4d#	.	4BB
8f#	.	8A	.
8a	4d#	8F#	4BB
8f#	.	8A	.
=28	=28	=28	=28
4e	4e	4G#	4EE
2r	2r	2r	2r
=29	=29	=29	=29
4b	4g#	2.r	2.r
4b	4g#	.	.
4b	4g#	.	.
=30	=30	=30	=30
4b	4g#	2.B	2.BB
8.a	8.f#	.	.
16g#	16e	.	.
4f#	4d#	.	.
=31	=31	=31	=31
4cc#	4a	2.r	2.r
4cc#	4a	.	.
4cc#	4a	.	.
=32	=32	=32	=32
4cc#	4a	2.e	2.E
8.b	8.g#	.	.
16a	16f#	.	.
4g#	4e	.	.
=33	=33	=33	=33
2.r	2.r	2.r	2.r
=34	=34	=34	=34
2.r	2.r	4c#	4A
.	.	4c#	4A
.	.	4c#	4A
=35	=35	=35	=35
2.cc#	2.c#	4c#	4A
.	.	8.B	8.G#
.	.	16A	16F#
.	.	4G#	4E#
=36	=36	=36	=36
2.r	2.r	4d	4B
.	.	4d	4B
.	.	4d	4B
=37	=37	=37	=37
2.ff#	2.f#	4d	4B
.	.	8.c#	8.A
.	.	16B	16G#
.	.	4A	4F#
=38	=38	=38	=38
4gg	4g	[2.A	4C#
4gg	4g	.	4C#
4gg	4g	.	4C#
=39	=39	=39	=39
4gg	4g	2.A_	4C#
8.ff#	8.f#	.	8.D
16ee	16e	.	16E
4dd	4d	.	4F#
=40	=40	=40	=40
4gg	4g	2.A_	4C#
4gg	4g	.	4C#
4gg	4g	.	4C#
=41	=41	=41	=41
4gg	4g	2.A]	4C#
8.ff#	8.f#	.	8.D
16ee	16e	.	16E
4dd	4d	.	4F#
=42	=42	=42	=42
4bb	4cc#	4e	4G 4GG
4bb	4cc#	4e	4G 4GG
4bb	4cc#	4e	4G 4GG
=43	=43	=43	=43
4bb	4cc#	4e	4G 4GG
2r	2r	2r	2r
=44	=44	=44	=44
4cc#	2.r	2.r	2.r
4dd	.	.	.
4b	.	.	.
=45	=45	=45	=45
2f#	2d	4A	2.r
.	.	4A	.
4e	4c#	4A	.
=46	=46	=46	=46
4d#	4c	4A	2.r
4e	4B	8.G	.
.	.	16F#	.
4r	4r	4E	.
=47	=47	=47	=47
4a	4d#	4B	2.r
4g	4e	4B	.
4f#	4d	4B	.
=48	=48	=48	=48
4e#	2c#	4B	2.r
4f#	.	8.A	.
.	.	16G#	.
4r	4r	4F#	.
=49	=49	=49	=49
4a	4r	4r	2.r
4a	4c#	4F#	.
[4a	4d#	4B	.
=50	=50	=50	=50
4a]	4e	2E	2.r
8.g#	4B	.	.
16e	.	.	.
4g	4c#	4A	.
=51	=51	=51	=51
4g	4d	4D	4d
4f#	4a	2r	4d
4ff#	4a	.	4d
=52	=52	=52	=52
4.ee	4g#	4b	4d
.	8.a	4e	8.c#
16ff#	.	.	.
16gg#	16dd	.	16B
4aa	4cc#	4e	4A
=53	=53	=53	=53
8dd	4r	4r	4r
8ee	.	.	.
8dd	4e	4B	4G#
8b	.	.	.
8cc#	4e	4A	4A
8a	.	.	.
=54	=54	=54	=54
4e	4e	4G#	4E
2r	4d#	2r	2r
.	4d	.	.
=55	=55	=55	=55
2a	4c#	[2.e	2.r
.	4c#	.	.
4cc#	4c#	.	.
=56	=56	=56	=56
4ee	4c#	2.e_	2.r
4dd	8.B	.	.
.	16A	.	.
4r	4G#	.	.
=57	=57	=57	=57
2b	4d	2.e_	2D
.	4d	.	.
4dd	4d	.	4BB
=58	=58	=58	=58
4ff#	4d	2.e]	4GG#
4ee	8.c#	.	4AA
.	16B	.	.
4r	4A	.	4r
=59	=59	=59	=59
4eee	2.r	2f#	2F#
4eee	.	.	.
4eee	.	4a#	4A#
=60	=60	=60	=60
4eee	4aa	4cc	4c
8.ddd#	4aa	4b	4B
16ccc#	.	.	.
4bb	4aa	4r	4r
=61	=61	=61	=61
4ddd	4aa	2e	2E
4ddd	8.gg#	.	.
.	16ff#	.	.
4ddd	4ee	4g#	4G#
=62	=62	=62	=62
4ddd	4gg	4b-	4B-
8.ccc#	4gg	4a	4A
16bb	.	.	.
4aa	4gg	4r	4r
=63	=63	=63	=63
4ccc	4ff#	4a	4d#
4ccc	4ff#	4a	4d#
4ccc	4ff#	4a	4d#
=64	=64	=64	=64
4ccc	4ff#	4a	4d#
2r	2r	2r	2r
=65	=65	=65	=65
4cc#	4a	2.r	2.r
4cc#	4a	.	.
4cc#	4a	.	.
=66	=66	=66	=66
4cc#	4a	4e	2.r
8.dd	8.b	4e	.
16dd#	16b#	.	.
4ee	4cc#	4e	.
=67	=67	=67	=67
2cc#	2a	4e	2.E
.	.	4d#	.
4b	4g#	4d	.
=68	=68	=68	=68
8a	4a	4c#	4A
8g#	.	.	.
8a	2r	2r	2r
8b	.	.	.
8cc#	.	.	.
8dd	.	.	.
=69	=69	=69	=69
4ee	4A#	4g	4C#
4ee	4A#	4g	4C#
4ee	4A#	4g	4C#
=70	=70	=70	=70
4ee	4A#	4g	2D
8.dd	8.B	4f#	.
16cc#	16c#	.	.
4b	4d	4r	4r
=71	=71	=71	=71
4.dd	4.B	4g#	4E
.	.	4g#	4E
8b	8d	.	.
8dd	8B	4g#	4E
8b	8d	.	.
=72	=72	=72	=72
4a	4c#	4a	4AA
2r	2r	2r	2r
=73	=73	=73	=73
[2.g#	[2.e	2.B	4r
.	.	.	4E
.	.	.	4D#
=74	=74	=74	=74
4g#]	4e]	4c#	4C#
4a	2d#	4F#	4BB
4f#	.	[4B	4AA
=75	=75	=75	=75
8b	4e	4B]	4GG#
8ee	.	.	.
[2b	4f#	4d#	4FF#
.	4g#	4e	4EE
=76	=76	=76	=76
8b]	8a	8f#	4DD#
8a#	8f#	8d#	.
8a	4f#	4d#	4BB
8g#	.	.	.
8a	4r	4r	4r
8f#	.	.	.
=77	=77	=77	=77
[2.g#	[2.e	4r	4r
.	.	4G#	4E
.	.	4F#	4D#
=78	=78	=78	=78
8g#]	4e]	4E	4C#
32a	.	.	.
32g#	.	.	.
32f#	.	.	.
32g#	.	.	.
4a	4d#	4F#	4BB
4f#	4c#	4D#	4AA
=79	=79	=79	=79
4.b	4B	2E	4GG#
.	4c#	.	4AA
8a#	.	.	.
8a	8B	4D#	4BB
8f#	8A	.	.
=80	=80	=80	=80
4e	4G#	4E	4E
2r	2r	2r	4BB
.	.	.	4EE
=81	=81	=81	=81
12d#	8f#	4B	4BB
12f#	.	.	.
.	8d#	.	.
12b	.	.	.
12dd#	[2f#	4r	4r
12ff#	.	.	.
12bb	.	.	.
12ff#	.	4b	4d#
12dd#	.	.	.
12b	.	.	.
=82	=82	=82	=82
12ee	8f#]	4a#	4c#
12cc#	.	.	.
.	8cc#	.	.
12b	.	.	.
12a#	[2f#	4r	4r
12g#	.	.	.
12f#	.	.	.
12e	.	4c#	4AA#
12f#	.	.	.
12e	.	.	.
=83	=83	=83	=83
12d#	8f#]	4B	4BB
12f#	.	.	.
.	8d#	.	.
12b	.	.	.
12dd#	[2f#	[2b	4r
12ff#	.	.	.
12bb	.	.	.
12ff#	.	.	4d#
12dd#	.	.	.
12b	.	.	.
=84	=84	=84	=84
12ee	8f#]	12b]	4c#
12cc#	.	12a#	.
.	8cc#	.	.
12b	.	12b	.
12a#	[2f#	4cc#	4r
12g#	.	.	.
12f#	.	.	.
12e	.	4c#	4AA#
12f#	.	.	.
12e	.	.	.
=85	=85	=85	=85
12d#	4f#]	4B	4BB
12f#	.	.	.
12b	.	.	.
12dd#	4r	4r	2r
12ff#	.	.	.
12bb	.	.	.
12aa	[4b	4d#	.
12gg#	.	.	.
12ff##	.	.	.
=86	=86	=86	=86
12aa#	4b]	4e	2.r
12gg#	.	.	.
12bb	.	.	.
12aa#	2r	2r	.
12gg#	.	.	.
12ff#	.	.	.
12ee	.	.	.
12dd#	.	.	.
12cc#	.	.	.
=87	=87	=87	=87
12gg#	4r	2r	4r
12ee	.	.	.
12cc#	.	.	.
4b	4d#	.	2F#
8dd#	8f#	4A#	.
8cc#	8e	.	.
=88	=88	=88	=88
[2.b	4d#	4B	2B
.	4e	4c#	.
.	4f#	4d#	4A
=89	=89	=89	=89
8b]	4g#	4e#	4G#
8dd	.	.	.
4r	4a	4f#	4F#
8cc#	4b	4g#	4E#
8g#	.	.	.
=90	=90	=90	=90
8b	4f#	4d#	4F#
8a	.	.	.
4r	4g#	4e	4E
8cc#	4a	4f#	4D#
8b	.	.	.
=91	=91	=91	=91
8a	8d#	4B	4E
8g#	8e	.	.
8f#	8d#	4r	4C#
8e	8e	.	.
8b	8g#	4c#	4AA
8a	8f#	.	.
=92	=92	=92	=92
4g#	4e	2B	2BB
4f#	4d#	.	.
4r	4r	4r	4AA
=93	=93	=93	=93
[2.bb	8B	4r	2.GG#
.	8c#	.	.
.	8d#	8B	.
.	8e	8c#	.
.	8f#	8d#	.
.	8g#	8e	.
=94	=94	=94	=94
2.bb_	8a	8f#	2.FF#
.	8b	8g#	.
.	8cc#	8a	.
.	8dd#	8b	.
.	8ee	8cc#	.
.	8ff#	8dd#	.
=95	=95	=95	=95
4bb]	4gg#	4ee	4EE
4bb#	4r	4r	4r
4ccc#	4ee	4g#	4AA#
=96	=96	=96	=96
4ee	4g#	4.B	2BB
8dd#	8f#	.	.
8cc#	8a	8D#	.
8b	8g#	8E	8C#
8a	8f#	8F#	8D#
=97	=97	=97	=97
[2.g#	[2.e	4G#	4.E
.	.	2B	.
.	.	.	8F#
.	.	.	8D#
.	.	.	8E
=98	=98	=98	=98
8g#]	4e]	8e	8C#
32a	.	8f#	8D#
32g#	.	.	.
32f#	.	.	.
32g#	.	.	.
4a	4f#	8d#	8BB
.	.	8e	8C#
4f#	4d#	8c#	8AA
.	.	8d#	8BB
=99	=99	=99	=99
8b	8e	8B	8GG#
8ee	8d#	8c#	8AA
[2b	8f#	8A	8FF#
.	8e	8B	8GG#
.	8g#	8G#	8EE
.	8f#	8A	8FF#
=100	=100	=100	=100
8b]	8a	8F#	8DD#
8a#	8f#	8D#	8FF#
8a	4d#	4F#	4BB
8g#	.	.	.
8a	4r	4r	4r
8f#	.	.	.
=101	=101	=101	=101
12g#	12e	3g#	3e
12b	12g#	.	.
12ee	12b	.	.
[2gg#	[2ee	.	.
.	.	12a	12f#
.	.	12g#	12e
.	.	12f#	12d#
.	.	12g#	12e
.	.	12f#	12d#
=102	=102	=102	=102
8gg#]	8ee]	12e	12c#
.	.	12f#	12d#
32aa	32ff#	.	.
32gg#	32ee	.	.
32ff#	32dd#	12e	12c#
32gg#	32ee	.	.
4aa	4ff#	12d#	12B
.	.	12e	12c#
.	.	12d#	12B
4ff#	4dd#	12c#	12A
.	.	12d#	12B
.	.	12c#	12A
=103	=103	=103	=103
8bb	4ee	4B	4G#
8aa#	.	.	.
8aa	8ff#	4r	4r
8gg#	8ee	.	.
8aa	8ff#	8B	4B
8ff#	8dd#	8a	.
=104	=104	=104	=104
4ee	4ee	4g#	4E
2r	2r	2r	4e
.	.	.	4r
==	==	==	==
*-	*-	*-	*-
!!!RWG1: This file contains only pitch and duration data.
!!!RWG2: Transposing instruments are not transposed.
!!!RWG3: Spines may have incompatible meters.
!!!RWG4: Durations of rests and tied notes may be interpreted.
!!!RWG: Key is interpreted using the Humdrum key tool.
!!!AFT: stage1
!!!END: 1997/04/15
!!format changes:
!!content changes:
!!public access: complete
!!!KEY: 2651463528
!!!EMD: Converted from MuseData to Humdrum Dec 16, 2000, by Andreas Kornstaedt using muse2kern.
